X: 26
T: Jenny Ran Away in the Mud in the Night
B: canberra pickers and fiddlers
B: tunes
M:C|
L:1/8
R: reel
Q: 1/4=100
K:A
V:1 
%P: AEAE
|:\
[E2A,2]A2 ABcA | BG2A G2Ac | BAcd efed | cA2B A2(3EFG |
A2A2 ABcA | BG2A G2Ac | BAcd efed |1 cA2B A4 :|2 cA2B A2e2 ||
|:\
a4 a2ab | a=gec d2eg | f2ff =gfed |1 cA2B A2ee |:2 cA2B A4 |]
% abcbook-tune_id 63da5934cee1046fb50ca0e2
% abcbook-tune_composer_id 
% abcbook-link-0 https://www.youtube.com/watch?v=j9-Mo4Bk9x8
% abcbook-boost 9
% abcbook-difficulty 0
% abcbook-tags canberra pickers and fiddlers,old time tunes,© free
% abcbook-tablature 
% abcbook-transpose 
% abcbook-tuning AEAE
% abcbook-lastupdated 1734219421328
% abcbook-src-url https://tunebook.net/scrape/tunes.abc
% abcbook-soundfonts 
% abcbook-repeats 1
%%gchordfont "itim-music,Itim" 20

